X: 6744
T: Champion, The
R: jig
M: 6/8
K: Bminor
|:FBc dcB|fBc dcB|cff f2 c|fgf edc|
FBc dcB|fBc dcB|cff fec|dBB BAG:|
|:AFA BGB|AFA fed|cBA gfe|dfe dcB|
AFA BGB|AFA fed|cBA gfe|dfe dcB:|2 dfe d3||

